style-guide/assets/wds-icons-twitter.svg

<svg xmlns="http://www.w3.org/2000/svg" xmlns:xlink="http://www.w3.org/1999/xlink" width="24" height="24" viewBox="0 0 24 24">
  <defs>
    <path id="twitter-a" d="M20.6809831,7.32786895 L20.6809831,7.90491814 C20.6809831,13.8196724 16.1948767,20.6000004 7.94622933,20.6000004 C5.34139333,20.6000004 3.02598355,19.8786889 1,18.5803282 C1.43413933,18.5803282 1.72356556,18.7245905 2.15770489,18.7245905 C4.18368844,18.7245905 6.209672,18.003279 7.80151622,16.8491806 C5.92024577,16.8491806 4.18368844,15.5508199 3.604836,13.6754101 C3.89426222,13.6754101 4.18368844,13.8196724 4.47311466,13.8196724 C4.907254,13.8196724 4.907254,13.8196724 5.48610644,13.6754101 C3.31540978,13.2426232 1.43413933,11.3672133 1.43413933,9.20327882 L1.43413933,9.20327882 C1.43413933,9.63606572 3.02598355,9.63606572 3.74954911,9.78032802 C2.59184422,8.91475423 1.86827867,7.61639354 1.86827867,6.02950826 C1.86827867,5.16393447 2.15770489,4.44262298 2.59184422,3.72131149 C4.76254089,6.46229516 8.23565555,8.19344274 11.8534833,8.48196733 C11.7087702,8.04918044 11.7087702,7.76065584 11.7087702,7.47213124 C11.7087702,5.01967217 13.7347538,3 16.1948767,3 C17.4972947,3 18.6549995,3.43278689 19.5232782,4.44262298 C20.53627,4.15409839 21.4045487,3.86557379 22.2728273,3.2885246 C21.838688,4.44262298 21.1151224,5.16393447 20.3915569,5.74098367 C21.2598355,5.59672137 22.2728273,5.30819677 22.9963929,5.01967217 C22.2728273,5.88524596 21.5492618,6.75081975 20.6809831,7.32786895 L20.6809831,7.32786895 Z"/>
  </defs>
  <use fill-rule="evenodd" xlink:href="#twitter-a"/>
</svg>

<svg viewBox="0 0 24 24" xmlns="http://www.w3.org/2000/svg">
  <path d="M20.681 7.328v.577c0 5.915-4.486 12.695-12.735 12.695-2.605 0-4.92-.721-6.946-2.02.434 0 .724.145 1.158.145 2.026 0 4.052-.722 5.644-1.876-1.882 0-3.618-1.298-4.197-3.174.29 0 .579.145.868.145.434 0 .434 0 1.013-.145-2.17-.432-4.052-2.308-4.052-4.472 0 .433 1.592.433 2.316.577-1.158-.865-1.882-2.164-1.882-3.75 0-.866.29-1.587.724-2.309 2.17 2.741 5.644 4.472 9.261 4.761-.144-.433-.144-.721-.144-1.01C11.709 5.02 13.735 3 16.195 3c1.302 0 2.46.433 3.328 1.443 1.013-.289 1.882-.577 2.75-1.154-.434 1.154-1.158 1.875-1.881 2.452a13.73 13.73 0 0 0 2.604-.721c-.723.865-1.447 1.73-2.315 2.308z"/>
</svg>
